X: 100902
T: Jolly Beggar
S: "First Collection of Traditional Irish Music" (M.Mulvihill)
Z: B.Black
L: 1/8
M: 6/8
R: jig
K: G
D|BGG Add|B3 BAG|BGG ADD|GBG AFD|
BGG Add|BAG ABc|dge f2 d|cAF G2 :|
D|GBd g2 e|fed cAF|GBd gfg|f/g/af g3|
f/g/af g2 e|fed cAF|1 B3 BAG|B/c/dB cAF :|2\
f/g/af gec|ded d2 ||
D|GBB B2 d|cAA A2 D|GBB BAG|B/c/dB cAF|
GBB B2 d|cAA ABc|dge f2 d|cAF G2 :|
